src/images/partials/lighten-2.svg

<svg fill="none" height="633" viewBox="0 0 678 633" width="678" xmlns="http://www.w3.org/2000/svg" xmlns:xlink="http://www.w3.org/1999/xlink"><linearGradient id="a" gradientUnits="userSpaceOnUse" x1="339" x2="17.9211" y1="-.000029" y2="32.0951"><stop offset=".62463" stop-color="#0f9d88"/><stop offset="1" stop-color="#201744" stop-opacity="0"/></linearGradient><path d="m149.846 227c167.574-105.404 421.925-195.2517 528.154-227-62.049 7.61958-192.584 46.9169-250.095 65.6131-10.377 12.2924-50.019 41.2489-125.575 58.7339-94.445 21.857 12.135-73.0207 32.713-124.347-117.766 9.31282-272.4313 93.1282-335.043 133.872l5.27625 41.802c62.43585-33.336 195.64375-101.2773 228.98975-106.357 41.683-6.3496-17.939 88.895-84.42 157.683z" fill="url(#a)"/><path d="m252.381 290.288c-113.2 60.31-215.4207 163.262-252.381 207.2 175.368-164.65 321.044-170.663 458.369-207.2 109.86-29.23 19.795 47.637-38.971 89.725l-242.638 139.675c3.711 21.891 12.248 75.202 16.701 113.312 16.702-27.75 136.862-25.437 194.854-20.812-1.856-31.759-10.578-107.023-30.62-154.013 506.618-310.337 36.187-243.275-105.314-167.887z" fill="#2b1d4d"/></svg>

<svg width="678" height="633" viewBox="0 0 678 633" fill="none" xmlns="http://www.w3.org/2000/svg">
<path d="M149.846 227C317.42 121.596 571.771 31.7483 678 0C615.951 7.61958 485.416 46.9169 427.905 65.6131C417.528 77.9055 377.886 106.862 302.33 124.347C207.885 146.204 314.465 51.3263 335.043 0C217.277 9.31282 62.6117 93.1282 0 133.872L5.27625 175.674C67.7121 142.338 200.92 74.3967 234.266 69.317C275.949 62.9674 216.327 158.212 149.846 227Z" fill="url(#paint0_linear)"/>
<path d="M252.381 290.288C139.181 350.598 36.9603 453.55 0 497.488C175.368 332.838 321.044 326.825 458.369 290.288C568.229 261.058 478.164 337.925 419.398 380.013L176.76 519.688C180.471 541.579 189.008 594.89 193.461 633C210.163 605.25 330.323 607.563 388.315 612.188C386.459 580.429 377.737 505.165 357.695 458.175C864.313 147.838 393.882 214.9 252.381 290.288Z" fill="#2B1D4D"/>
<defs>
<linearGradient id="paint0_linear" x1="339" y1="-2.87425e-05" x2="17.9211" y2="32.0951" gradientUnits="userSpaceOnUse">
<stop offset="0.62463" stop-color="#0F9D88"/>
<stop offset="1" stop-color="#201744" stop-opacity="0"/>
</linearGradient>
</defs>
</svg>
